; HEADER_BLOCK_START
; generated by OrcaSlicer 2.3.2 on 2026-04-29 at 18:04:18
; total layer number: 37
; filament_density: 1.27
; filament_diameter: 1.75
; max_z_height: 14.80
; filament: 1
; HEADER_BLOCK_END

; THUMBNAIL_BLOCK_START

;
; THUMBNAIL_BLOCK_END

; external perimeters extrusion width = 0.82mm
; perimeters extrusion width = 0.82mm
; infill extrusion width = 0.82mm
; solid infill extrusion width = 0.82mm
; top infill extrusion width = 0.82mm
; first layer extrusion width = 0.82mm

; EXECUTABLE_BLOCK_START
EXCLUDE_OBJECT_DEFINE NAME=glareblocker_id_0_copy_0 CENTER=150.2,167.9 POLYGON=[[129.5,152.2],[129.511,151.939],[129.546,151.679],[129.602,151.424],[129.681,151.174],[129.781,150.932],[129.902,150.7],[130.043,150.479],[130.202,150.272],[130.379,150.079],[130.572,149.902],[130.779,149.743],[131,149.602],[131.232,149.481],[131.474,149.381],[131.724,149.302],[131.979,149.246],[132.239,149.211],[132.5,149.2],[167.9,149.2],[168.161,149.211],[168.421,149.246],[168.676,149.302],[168.926,149.381],[169.168,149.481],[169.4,149.602],[169.621,149.743],[169.828,149.902],[170.021,150.079],[170.198,150.272],[170.357,150.479],[170.498,150.7],[170.619,150.932],[170.719,151.174],[170.798,151.424],[170.854,151.679],[170.889,151.939],[170.9,152.2],[170.9,183.6],[170.889,183.861],[170.854,184.121],[170.798,184.376],[170.719,184.626],[170.619,184.868],[170.498,185.1],[170.357,185.321],[170.198,185.528],[170.021,185.721],[169.828,185.898],[169.621,186.057],[169.4,186.198],[169.168,186.319],[168.926,186.419],[168.676,186.498],[168.421,186.554],[168.161,186.589],[167.9,186.6],[132.5,186.6],[132.239,186.589],[131.979,186.554],[131.724,186.498],[131.474,186.419],[131.232,186.319],[131,186.198],[130.779,186.057],[130.572,185.898],[130.379,185.721],[130.202,185.528],[130.043,185.321],[129.902,185.1],[129.781,184.868],[129.681,184.626],[129.602,184.376],[129.546,184.121],[129.511,183.861],[129.5,183.6],[129.5,152.2]]
EXCLUDE_OBJECT_DEFINE NAME=glareblocker_id_0_copy_1 CENTER=150.2,128.5 POLYGON=[[129.5,112.8],[129.511,112.539],[129.546,112.279],[129.602,112.024],[129.681,111.774],[129.781,111.532],[129.902,111.3],[130.043,111.079],[130.202,110.872],[130.379,110.679],[130.572,110.502],[130.779,110.343],[131,110.202],[131.232,110.081],[131.474,109.981],[131.724,109.902],[131.979,109.846],[132.239,109.811],[132.5,109.8],[167.9,109.8],[168.161,109.811],[168.421,109.846],[168.676,109.902],[168.926,109.981],[169.168,110.081],[169.4,110.202],[169.621,110.343],[169.828,110.502],[170.021,110.679],[170.198,110.872],[170.357,111.079],[170.498,111.3],[170.619,111.532],[170.719,111.774],[170.798,112.024],[170.854,112.279],[170.889,112.539],[170.9,112.8],[170.9,144.2],[170.889,144.461],[170.854,144.721],[170.798,144.976],[170.719,145.226],[170.619,145.468],[170.498,145.7],[170.357,145.921],[170.198,146.128],[170.021,146.321],[169.828,146.498],[169.621,146.657],[169.4,146.798],[169.168,146.919],[168.926,147.019],[168.676,147.098],[168.421,147.154],[168.161,147.189],[167.9,147.2],[132.5,147.2],[132.239,147.189],[131.979,147.154],[131.724,147.098],[131.474,147.019],[131.232,146.919],[131,146.798],[130.779,146.657],[130.572,146.498],[130.379,146.321],[130.202,146.128],[130.043,145.921],[129.902,145.7],[129.781,145.468],[129.681,145.226],[129.602,144.976],[129.546,144.721],[129.511,144.461],[129.5,144.2],[129.5,112.8]]
EXCLUDE_OBJECT_DEFINE NAME=glareblocker_id_0_copy_2 CENTER=106.8,128.5 POLYGON=[[86.1,112.8],[86.1114,112.539],[86.1456,112.279],[86.2022,112.024],[86.2809,111.774],[86.3811,111.532],[86.5019,111.3],[86.6425,111.079],[86.8019,110.872],[86.9787,110.679],[87.1716,110.502],[87.3793,110.343],[87.6,110.202],[87.8321,110.081],[88.0739,109.981],[88.3235,109.902],[88.5791,109.846],[88.8385,109.811],[89.1,109.8],[124.5,109.8],[124.761,109.811],[125.021,109.846],[125.276,109.902],[125.526,109.981],[125.768,110.081],[126,110.202],[126.221,110.343],[126.428,110.502],[126.621,110.679],[126.798,110.872],[126.957,111.079],[127.098,111.3],[127.219,111.532],[127.319,111.774],[127.398,112.024],[127.454,112.279],[127.489,112.539],[127.5,112.8],[127.5,144.2],[127.489,144.461],[127.454,144.721],[127.398,144.976],[127.319,145.226],[127.219,145.468],[127.098,145.7],[126.957,145.921],[126.798,146.128],[126.621,146.321],[126.428,146.498],[126.221,146.657],[126,146.798],[125.768,146.919],[125.526,147.019],[125.276,147.098],[125.021,147.154],[124.761,147.189],[124.5,147.2],[89.1,147.2],[88.8385,147.189],[88.5791,147.154],[88.3235,147.098],[88.0739,147.019],[87.8321,146.919],[87.6,146.798],[87.3793,146.657],[87.1716,146.498],[86.9787,146.321],[86.8019,146.128],[86.6425,145.921],[86.5019,145.7],[86.3811,145.468],[86.2809,145.226],[86.2022,144.976],[86.1456,144.721],[86.1114,144.461],[86.1,144.2],[86.1,112.8]]
EXCLUDE_OBJECT_DEFINE NAME=glareblocker_id_0_copy_3 CENTER=106.8,167.9 POLYGON=[[86.1,152.2],[86.1114,151.939],[86.1456,151.679],[86.2022,151.424],[86.2809,151.174],[86.3811,150.932],[86.5019,150.7],[86.6425,150.479],[86.8019,150.272],[86.9787,150.079],[87.1716,149.902],[87.3793,149.743],[87.6,149.602],[87.8321,149.481],[88.0739,149.381],[88.3235,149.302],[88.5791,149.246],[88.8385,149.211],[89.1,149.2],[124.5,149.2],[124.761,149.211],[125.021,149.246],[125.276,149.302],[125.526,149.381],[125.768,149.481],[126,149.602],[126.221,149.743],[126.428,149.902],[126.621,150.079],[126.798,150.272],[126.957,150.479],[127.098,150.7],[127.219,150.932],[127.319,151.174],[127.398,151.424],[127.454,151.679],[127.489,151.939],[127.5,152.2],[127.5,183.6],[127.489,183.861],[127.454,184.121],[127.398,184.376],[127.319,184.626],[127.219,184.868],[127.098,185.1],[126.957,185.321],[126.798,185.528],[126.621,185.721],[126.428,185.898],[126.221,186.057],[126,186.198],[125.768,186.319],[125.526,186.419],[125.276,186.498],[125.021,186.554],[124.761,186.589],[124.5,186.6],[89.1,186.6],[88.8385,186.589],[88.5791,186.554],[88.3235,186.498],[88.0739,186.419],[87.8321,186.319],[87.6,186.198],[87.3793,186.057],[87.1716,185.898],[86.9787,185.721],[86.8019,185.528],[86.6425,185.321],[86.5019,185.1],[86.3811,184.868],[86.2809,184.626],[86.2022,184.376],[86.1456,184.121],[86.1114,183.861],[86.1,183.6],[86.1,152.2]]
EXCLUDE_OBJECT_DEFINE NAME=glareblocker_id_0_copy_4 CENTER=106.8,89.1 POLYGON=[[86.1,73.4],[86.1114,73.1385],[86.1456,72.8791],[86.2022,72.6235],[86.2809,72.3739],[86.3811,72.1321],[86.5019,71.9],[86.6425,71.6793],[86.8019,71.4716],[86.9787,71.2787],[87.1716,71.1019],[87.3793,70.9425],[87.6,70.8019],[87.8321,70.6811],[88.0739,70.5809],[88.3235,70.5022],[88.5791,70.4456],[88.8385,70.4114],[89.1,70.4],[124.5,70.4],[124.761,70.4114],[125.021,70.4456],[125.276,70.5022],[125.526,70.5809],[125.768,70.6811],[126,70.8019],[126.221,70.9425],[126.428,71.1019],[126.621,71.2787],[126.798,71.4716],[126.957,71.6793],[127.098,71.9],[127.219,72.1321],[127.319,72.3739],[127.398,72.6235],[127.454,72.8791],[127.489,73.1385],[127.5,73.4],[127.5,104.8],[127.489,105.061],[127.454,105.321],[127.398,105.576],[127.319,105.826],[127.219,106.068],[127.098,106.3],[126.957,106.521],[126.798,106.728],[126.621,106.921],[126.428,107.098],[126.221,107.257],[126,107.398],[125.768,107.519],[125.526,107.619],[125.276,107.698],[125.021,107.754],[124.761,107.789],[124.5,107.8],[89.1,107.8],[88.8385,107.789],[88.5791,107.754],[88.3235,107.698],[88.0739,107.619],[87.8321,107.519],[87.6,107.398],[87.3793,107.257],[87.1716,107.098],[86.9787,106.921],[86.8019,106.728],[86.6425,106.521],[86.5019,106.3],[86.3811,106.068],[86.2809,105.826],[86.2022,105.576],[86.1456,105.321],[86.1114,105.061],[86.1,104.8],[86.1,73.4]]
EXCLUDE_OBJECT_DEFINE NAME=glareblocker_id_0_copy_5 CENTER=150.2,89.1 POLYGON=[[129.5,73.4],[129.511,73.1385],[129.546,72.8791],[129.602,72.6235],[129.681,72.3739],[129.781,72.1321],[129.902,71.9],[130.043,71.6793],[130.202,71.4716],[130.379,71.2787],[130.572,71.1019],[130.779,70.9425],[131,70.8019],[131.232,70.6811],[131.474,70.5809],[131.724,70.5022],[131.979,70.4456],[132.239,70.4114],[132.5,70.4],[167.9,70.4],[168.161,70.4114],[168.421,70.4456],[168.676,70.5022],[168.926,70.5809],[169.168,70.6811],[169.4,70.8019],[169.621,70.9425],[169.828,71.1019],[170.021,71.2787],[170.198,71.4716],[170.357,71.6793],[170.498,71.9],[170.619,72.1321],[170.719,72.3739],[170.798,72.6235],[170.854,72.8791],[170.889,73.1385],[170.9,73.4],[170.9,104.8],[170.889,105.061],[170.854,105.321],[170.798,105.576],[170.719,105.826],[170.619,106.068],[170.498,106.3],[170.357,106.521],[170.198,106.728],[170.021,106.921],[169.828,107.098],[169.621,107.257],[169.4,107.398],[169.168,107.519],[168.926,107.619],[168.676,107.698],[168.421,107.754],[168.161,107.789],[167.9,107.8],[132.5,107.8],[132.239,107.789],[131.979,107.754],[131.724,107.698],[131.474,107.619],[131.232,107.519],[131,107.398],[130.779,107.257],[130.572,107.098],[130.379,106.921],[130.202,106.728],[130.043,106.521],[129.902,106.3],[129.781,106.068],[129.681,105.826],[129.602,105.576],[129.546,105.321],[129.511,105.061],[129.5,104.8],[129.5,73.4]]
M106 S0
M106 P2 S0
;TYPE:Custom
;;===== date: 20240520 =====================
;printer_model:Elegoo Centauri Carbon
;initial_filament:PETG
;curr_bed_type:Textured PEI Plate
M400 ; wait for buffer to clear
M220 S100 ;Set the feed speed to 100%
M221 S100 ;Set the flow rate to 100%
M104 S140
M140 S80
G90
G28 ;home
M729 ;Clean Nozzle
M106 P2 S255
M190 S80
M106 P2 S0


;=============turn on fans to prevent PLA jamming=================


;enable_pressure_advance:false
;This value is called if pressure advance is enabled

M204 S5000 ;Call exterior wall print acceleration


G1 X128.5 Y-1.2 F20000
G1 Z0.3 F900
M109 S255
M83
G92 E0 ;Reset Extruder
G1 F6000 
G1 X-1.2 E10.156 ;Draw the first line
G1 Y98.8 E7.934
G1 X-0.5 Y100 E0.1
G1 Y-0.3 E7.934
G1 X78.5 E6.284
G1 F1600 
G1 X98.5 E2
G1 F8000 
G1 X118.5 E2
G1 F1600 
G1 X138.5 E2
G1 F8000 
G1 X158.5 E2
G1 F8000 
G1 X178.5 E2
;End PA test.


G3 I-1 J0 Z0.6 F1200.0 ;Move to side a little
G1 F20000
G92 E0 ;Reset Extruder
SET_PRINT_STATS_INFO TOTAL_LAYER=37
;LAYER_COUNT:37
;LAYER:0
G90
G21
M83 ; use relative distances for extrusion
; Filament gcode
M106 P2 S0
;LAYER_CHANGE
;Z:0.4
;HEIGHT:0.4
;BEFORE_LAYER_CHANGE
;0.4
G92 E0

G1 E-1.2 F1800
SET_PRINT_STATS_INFO CURRENT_LAYER=1
;_SET_FAN_SPEED_CHANGING_LAYER
SET_VELOCITY_LIMIT ACCEL=500
EXCLUDE_OBJECT_START NAME=glareblocker_id_0_copy_5
G1 X164.034 Y106.506 F30000
G1 Z.8
G1 Z.4
G1 E1.2 F1800
;TYPE:Inner wall
;WIDTH:0.82
G1 F2100
G1 X163.975 Y106.135 E.04589
G1 X164.411 Y105.992 E.05598
G1 X164.684 Y106.212 E.04276
G1 X164.58 Y106.506 E.03808
G1 X164.114 Y106.506 E.05691
G1 E-1.08101 F1800
;WIPE_START
G1 F30000
G1 X163.975 Y106.135 E-.02379
G1 X164.411 Y105.992 E-.02751
G1 X164.684 Y106.212 E-.02101
G1 X164.58 Y106.506 E-.01872
G1 X164.114 Y106.506 E-.02797
;WIPE_END
G1 X166.208 Y99.759 Z.8
G1 Z.4
G1 E1.2 F1800
G1 F2100
G2 X166.294 Y98.343 I-9.292 J-1.272 E.17344
G1 X166.286 Y78.349 E2.44105
G1 X166.236 Y77.747 E.07375
G1 X167.135 Y77.88 E.11104
G2 X169.606 Y76.817 I-.078 J-3.584 E.33662
G1 X169.606 Y101.247 E2.98271
G1 X169.084 Y100.669 E.09504
G1 X168.516 Y100.25 E.08616
G1 X167.877 Y99.951 E.08622
G1 X167.182 Y99.782 E.08725
G1 X166.288 Y99.761 E.10916
G1 E-1.08 F1800
;WIPE_START
G1 F30000
G1 X166.253 Y99.451 E-.01875
G1 X166.288 Y98.876 E-.03454
G1 X166.294 Y98.343 E-.032
G1 X166.294 Y97.764 E-.0347
;WIPE_END
G1 X165.799 Y90.148 Z.8
G1 X164.872 Y75.865 Z.8
G1 Z.4
G1 E1.2 F1800
;TYPE:Outer wall
G1 F2100
G1 X164.61 Y75.394 E.06576
G1 X164.449 Y74.88 E.06576
G1 X164.402 Y74.422 E.05614
G1 X164.326 Y74.158 E.03353
G3 X165.121 Y72.306 I2.438 J-.05 E.25374
G3 X166.676 Y71.629 I1.7 J1.778 E.21141
G3 X167.998 Y71.722 I.341 J4.563 E.16241
G3 X169.677 Y73.581 I-.694 J2.314 E.32138
G1 X169.731 Y74.097 E.06342
G1 X169.711 Y74.848 E.09163
G1 X169.615 Y75.379 E.06598
G3 X167.473 Y77.119 I-2.454 J-.833 E.35523
G1 X167.162 Y77.142 E.03801
G1 X166.573 Y77.055 E.07279
G3 X165.64 Y76.597 I20.85 J-43.612 E.12686
G1 X165.222 Y76.273 E.06449
G1 X164.924 Y75.925 E.056
G1 E-1.08 F1800
;WIPE_START
G1 F30000
G1 X164.61 Y75.394 E-.03703
G1 X164.449 Y74.88 E-.03232
G1 X164.402 Y74.422 E-.02759
G1 X164.326 Y74.158 E-.01648
G1 X164.33 Y74.049 E-.00659
;WIPE_END
G1 X163.588 Y74.237 Z.8
G1 Z.4
G1 E1.2 F1800
;TYPE:Inner wall
G1 F2100
G2 X162.553 Y74.114 I-1.194 J5.608 E.12745
G1 X137.306 Y74.115 E3.08241
G1 X137.315 Y73.853 E.032
G1 X137.128 Y73.1 E.09473
G1 X136.824 Y72.487 E.08362
G2 X136.189 Y71.694 I-4.142 J2.665 E.12412
G1 X164.629 Y71.694 E3.4722
G1 X164.144 Y72.321 E.09675
G2 X163.586 Y74.157 I2.56 J1.782 E.23814
G1 E-1.08 F1800
;WIPE_START
G1 F30000
G1 X163.146 Y74.161 E-.02641
G1 X162.553 Y74.114 E-.03566
G1 X161.588 Y74.114 E-.05793
;WIPE_END
G1 X162.663 Y81.67 Z.8
G1 X165.41 Y100.983 Z.8
G1 Z.4
G1 E1.2 F1800
;TYPE:Outer wall
G1 F2100
G2 X165.901 Y100.656 I-.371 J-1.091 E.07283
G1 X166.509 Y100.501 E.07659
G1 X167.086 Y100.515 E.07044
G1 X167.632 Y100.647 E.06864
G1 X168.139 Y100.884 E.06827
G1 X168.588 Y101.216 E.06825
G1 X168.963 Y101.631 E.06825
G1 X169.249 Y102.112 E.06825
G1 X169.433 Y102.639 E.06826
G1 X169.51 Y103.193 E.06825
G1 X169.476 Y103.751 E.06825
G1 X169.332 Y104.291 E.0682
G1 X169.089 Y104.783 E.06697
G1 X168.749 Y105.226 E.06818
G1 X168.328 Y105.593 E.06825
G1 X167.842 Y105.87 E.06825
G1 X167.321 Y106.042 E.067
G3 X165.643 Y105.905 I-.597 J-3.039 E.20821
G1 X165.165 Y105.656 E.06579
G1 X164.737 Y105.313 E.06694
G2 X164.513 Y105.068 I-1.057 J.746 E.04065
G1 X164.047 Y105.339 E.06569
G1 X163.536 Y105.506 E.06574
G1 X163.026 Y105.56 E.06262
G1 X136.385 Y105.56 E3.2526
G3 X135.028 Y105.159 I.007 J-2.519 E.17513
G3 X133.317 Y106.208 I-2.241 J-1.736 E.25046
G3 X131.144 Y105.67 I-.507 J-2.612 E.28204
G3 X130.774 Y105.218 I1.27 J-1.416 E.07161
G1 X130.4 Y104.585 E.08975
G1 X130.221 Y104.086 E.06477
G1 X130.145 Y103.559 E.06502
G1 X130.176 Y103.027 E.06502
G1 X130.311 Y102.513 E.06497
G1 X130.537 Y102.053 E.06254
G2 X130.773 Y101.652 I-1.313 J-1.044 E.05691
G3 X132.204 Y100.698 I1.87 J1.254 E.21551
G3 X133.352 Y100.694 I.584 J2.757 E.14114
G3 X133.931 Y100.923 I-11.385 J29.617 E.07601
G1 X133.99 Y100.989 E.01079
G1 X133.99 Y100.401 E.07185
G3 X133.841 Y98.866 I6.344 J-1.393 E.18874
G1 X133.841 Y78.395 E2.49926
G3 X133.898 Y77.276 I8.285 J-.132 E.13695
G1 X134.016 Y77.064 E.0296
G1 X134.026 Y76.998 E.00815
G1 X133.837 Y77.004 E.02308
G1 X133.566 Y77.098 E.03504
G1 X132.938 Y77.016 E.0773
G1 X132.412 Y76.789 E.06997
G3 X132.468 Y71.884 I1.387 J-2.437 E.72913
G3 X133.024 Y71.683 I1.006 J1.919 E.07246
G3 X134.876 Y71.768 I.752 J3.855 E.22853
G3 X136.191 Y72.863 I-.976 J2.507 E.21252
G1 X136.435 Y73.355 E.06707
G1 X136.578 Y73.931 E.07248
G1 X136.557 Y74.554 E.07613
G1 X136.421 Y74.806 E.03496
G1 X136.386 Y74.985 E.02223
G3 X137.875 Y74.841 I1.347 J6.161 E.18309
G1 X162.524 Y74.848 E3.00944
G3 X163.355 Y74.942 I-.1 J4.598 E.10224
G1 X163.58 Y75.066 E.03136
G3 X164.614 Y75.607 I-.585 J2.376 E.14395
G1 X164.944 Y75.974 E.06025
G1 X165.093 Y76.204 E.03344
G1 X165.29 Y76.645 E.05893
G3 X165.406 Y77.338 I-2.131 J.713 E.08618
G3 X165.552 Y78.38 I-4.437 J1.154 E.12872
G1 X165.56 Y98.339 E2.43682
G3 X165.449 Y99.879 I-8.792 J.143 E.18873
G2 X165.407 Y100.903 I6.604 J.787 E.12528
G1 E-1.08 F1800
;WIPE_START
G1 F30000
G1 X165.68 Y100.849 E-.01673
G1 X165.901 Y100.656 E-.0176
G1 X166.509 Y100.501 E-.03764
G1 X167.086 Y100.515 E-.03462
G1 X167.303 Y100.567 E-.01341
;WIPE_END
G1 X159.671 Y100.557 Z.8
G1 X130.775 Y100.521 Z.8
G1 Z.4
G1 E1.2 F1800
;TYPE:Inner wall
G1 F2100
G1 X130.794 Y99.832 E.08416
G1 X130.794 Y76.268 E2.87697
G1 X131.198 Y76.752 E.07698
G2 X132.066 Y77.44 I2.939 J-2.818 E.13562
G1 X132.742 Y77.731 E.08982
G1 X133.116 Y77.78 E.04606
G1 X133.106 Y98.871 E2.57507
G2 X133.157 Y99.92 I7.712 J.156 E.12829
G2 X131.356 Y100.211 I-.348 J3.555 E.22514
G1 X130.845 Y100.483 E.0707
G1 E-1.08 F1800
;WIPE_START
G1 F30000
G1 X130.794 Y99.832 E-.03921
G1 X130.794 Y98.485 E-.08079
;WIPE_END
G1 X129.952 Y105.245 Z.8
G1 Z.4
G1 E1.2 F1800
;TYPE:Outer wall
G1 F2100
G1 X129.95 Y105.24 E.00065
G1 X129.91 Y104.782 E.05615
G1 X129.91 Y101.834 E.35988
