; HEADER_BLOCK_START
; generated by OrcaSlicer 2.3.2 on 2026-04-29 at 18:01:39
; total layer number: 246
; filament_density: 1.27
; filament_diameter: 1.75
; max_z_height: 98.40
; filament: 1
; HEADER_BLOCK_END

; THUMBNAIL_BLOCK_START

;
; THUMBNAIL_BLOCK_END

; external perimeters extrusion width = 0.82mm
; perimeters extrusion width = 0.82mm
; infill extrusion width = 0.82mm
; solid infill extrusion width = 0.82mm
; top infill extrusion width = 0.82mm
; first layer extrusion width = 0.82mm

; EXECUTABLE_BLOCK_START
EXCLUDE_OBJECT_DEFINE NAME=innerchassis.stl_id_0_copy_0 CENTER=128.5,128.5 POLYGON=[[7.58406,84.3571],[7.58887,84.259],[9.01811,60.7607],[9.05714,60.471],[9.07226,60.3888],[9.16196,60.0239],[9.22686,59.8253],[9.28637,59.6692],[9.44434,59.3282],[9.5042,59.2181],[9.63438,59.004],[9.85477,58.6996],[9.88103,58.6671],[10.1034,58.4178],[10.3463,58.1884],[10.378,58.1612],[10.6761,57.9323],[10.8864,57.7961],[10.9948,57.7331],[11.3312,57.5655],[11.4855,57.5016],[18.3992,54.7069],[18.4216,54.6983],[18.4908,54.6752],[18.5614,54.6572],[18.566,54.6562],[18.6332,54.6444],[18.7057,54.6369],[18.739,54.6352],[92.6524,52.1507],[164.348,52.1507],[238.261,54.6352],[238.285,54.6363],[238.357,54.643],[238.428,54.655],[238.434,54.6562],[238.499,54.6722],[238.568,54.6943],[238.601,54.7069],[245.514,57.5016],[245.669,57.5655],[246.005,57.7331],[246.114,57.7961],[246.324,57.9323],[246.622,58.1612],[246.654,58.1884],[246.897,58.4178],[247.119,58.6671],[247.145,58.6996],[247.366,59.004],[247.496,59.2181],[247.556,59.3282],[247.714,59.6692],[247.773,59.8253],[247.838,60.0239],[247.928,60.3888],[247.943,60.471],[247.982,60.7607],[249.411,84.259],[249.416,84.3571],[249.416,195.293],[249.416,195.316],[249.415,195.339],[249.413,195.363],[249.412,195.386],[249.409,195.409],[249.406,195.432],[249.402,195.458],[249.399,195.478],[249.389,195.524],[249.377,195.569],[249.361,195.618],[249.347,195.657],[249.309,195.742],[249.295,195.77],[247.927,198.232],[247.858,198.35],[247.709,198.578],[247.643,198.67],[247.46,198.901],[247.431,198.936],[247.203,199.18],[247.182,199.201],[246.913,199.444],[246.878,199.473],[246.69,199.618],[246.55,199.716],[246.319,199.86],[246.201,199.927],[246.123,199.968],[245.833,200.105],[245.82,200.111],[245.665,200.173],[245.508,200.229],[245.451,200.248],[245.057,200.355],[244.968,200.374],[244.873,200.392],[244.655,200.426],[215.921,203.307],[215.823,203.315],[178.866,204.557],[128.5,204.849],[78.1339,204.557],[41.1772,203.315],[41.0794,203.307],[12.3452,200.426],[12.0318,200.374],[11.943,200.355],[11.5491,200.248],[11.335,200.173],[11.1668,200.105],[10.7994,199.927],[10.6808,199.86],[10.45,199.716],[10.1218,199.473],[10.0868,199.444],[9.81754,199.201],[9.56925,198.936],[9.53977,198.901],[9.29095,198.578],[9.1422,198.35],[9.0732,198.232],[7.7053,195.77],[7.69089,195.742],[7.65288,195.657],[7.63857,195.618],[7.62296,195.569],[7.60141,195.478],[7.59778,195.458],[7.58841,195.386],[7.58406,195.293],[7.58406,84.3571]]
M106 S0
M106 P2 S0
;TYPE:Custom
;;===== date: 20240520 =====================
;printer_model:Elegoo Centauri Carbon
;initial_filament:PETG
;curr_bed_type:Textured PEI Plate
M400 ; wait for buffer to clear
M220 S100 ;Set the feed speed to 100%
M221 S100 ;Set the flow rate to 100%
M104 S140
M140 S80
G90
G28 ;home
M729 ;Clean Nozzle
M106 P2 S255
M190 S80
M106 P2 S0


;=============turn on fans to prevent PLA jamming=================


;enable_pressure_advance:false
;This value is called if pressure advance is enabled

M204 S5000 ;Call exterior wall print acceleration


G1 X128.5 Y-1.2 F20000
G1 Z0.3 F900
M109 S255
M83
G92 E0 ;Reset Extruder
G1 F6000 
G1 X-1.2 E10.156 ;Draw the first line
G1 Y98.8 E7.934
G1 X-0.5 Y100 E0.1
G1 Y-0.3 E7.934
G1 X78.5 E6.284
G1 F1600 
G1 X98.5 E2
G1 F8000 
G1 X118.5 E2
G1 F1600 
G1 X138.5 E2
G1 F8000 
G1 X158.5 E2
G1 F8000 
G1 X178.5 E2
;End PA test.


G3 I-1 J0 Z0.6 F1200.0 ;Move to side a little
G1 F20000
G92 E0 ;Reset Extruder
SET_PRINT_STATS_INFO TOTAL_LAYER=246
;LAYER_COUNT:246
;LAYER:0
G90
G21
M83 ; use relative distances for extrusion
; Filament gcode
M106 P2 S0
;LAYER_CHANGE
;Z:0.4
;HEIGHT:0.4
;BEFORE_LAYER_CHANGE
;0.4
G92 E0

G1 E-1.2 F1800
SET_PRINT_STATS_INFO CURRENT_LAYER=1
;_SET_FAN_SPEED_CHANGING_LAYER
SET_VELOCITY_LIMIT ACCEL=500
EXCLUDE_OBJECT_START NAME=innerchassis.stl_id_0_copy_0
G1 X233.237 Y77.62 F30000
G1 Z.8
G1 Z.4
G1 E1.2 F1800
;TYPE:Brim
;WIDTH:0.82
G1 F2100
G1 X233.493 Y77.002 E.08168
G1 X234.009 Y77.518 E.08914
G1 X234.59 Y78.098 E.1002
G1 X234.895 Y78.355 E.04866
G1 X235.228 Y78.555 E.04741
G1 X235.547 Y78.687 E.04214
G1 X235.979 Y78.789 E.05429
G1 X236.329 Y78.816 E.04276
G1 X237.68 Y78.815 E.16494
G1 X238.095 Y78.778 E.05091
G1 X238.47 Y78.682 E.04724
G1 X238.825 Y78.528 E.04724
G1 X239.151 Y78.321 E.04712
G1 X239.474 Y78.035 E.05281
G1 X239.529 Y78.448 E.05097
G1 X239.42 Y79.277 E.10201
G1 X239.1 Y80.049 E.10201
G1 X238.592 Y80.712 E.10201
G1 X237.929 Y81.22 E.10201
G1 X237.157 Y81.54 E.10201
G1 X236.328 Y81.649 E.10201
G1 X235.5 Y81.54 E.10201
G1 X234.728 Y81.22 E.10201
G1 X234.065 Y80.712 E.10201
G1 X233.557 Y80.049 E.10201
G1 X233.237 Y79.277 E.10201
G1 X233.128 Y78.448 E.10201
G1 X233.226 Y77.699 E.09224
G1 X234.038 Y78.802 F30000
G1 F2100
G1 X234.18 Y78.765 E.01786
G1 X234.303 Y78.816 E.01624
G1 X234.409 Y78.906 E.01701
G1 X234.96 Y79.238 E.07849
G1 X235.392 Y79.405 E.05653
G1 X235.795 Y79.5 E.05055
G1 X236.339 Y79.55 E.06669
G1 X237.671 Y79.549 E.16262
G1 X238.122 Y79.512 E.05533
G1 X238.264 Y79.549 E.01786
G1 X238.351 Y79.667 E.01786
G1 X238.315 Y79.866 E.02467
G1 X238.045 Y80.206 E.05299
G1 X237.581 Y80.561 E.07133
G1 X236.992 Y80.814 E.07829
G1 X236.357 Y80.905 E.07829
G1 X235.72 Y80.828 E.07829
G1 X235.075 Y80.561 E.08525
G1 X234.612 Y80.206 E.07133
G1 X234.216 Y79.701 E.07829
G1 X233.956 Y79.065 E.08387
G1 X233.951 Y78.919 E.01786
G1 X233.99 Y78.866 E.00809
G1 E-1.08 F1800
;WIPE_START
G1 F30000
G1 X234.18 Y78.765 E-.01287
G1 X234.303 Y78.816 E-.00798
G1 X234.409 Y78.906 E-.00836
G1 X234.96 Y79.238 E-.03857
G1 X235.392 Y79.405 E-.02778
G1 X235.788 Y79.499 E-.02443
;WIPE_END
G1 X228.215 Y78.547 Z.8
G1 X76.413 Y59.469 Z.8
G1 Z.4
G1 E1.2 F1800
G1 F2100
G1 X76.354 Y59.936 E.05757
G1 X76.034 Y60.707 E.10188
G1 X75.526 Y61.37 E.10201
G1 X74.863 Y61.879 E.10201
G1 X74.091 Y62.199 E.10201
G1 X73.555 Y62.269 E.066
G1 X73.395 Y62.322 E.02061
G1 X72.566 Y62.431 E.10201
G1 X71.738 Y62.322 E.10201
G1 X70.966 Y62.002 E.10201
G1 X70.303 Y61.494 E.10201
G1 X69.795 Y60.831 E.10201
G1 X69.475 Y60.059 E.10201
G1 X69.428 Y59.703 E.04379
G1 X72.579 Y59.597 E.38488
G1 X72.732 Y59.563 E.01922
G1 X72.892 Y59.459 E.02319
G1 X72.97 Y59.334 E.01808
G1 X73.034 Y59.432 E.01437
G1 X73.199 Y59.531 E.02348
G1 X73.378 Y59.571 E.02241
G1 X76.333 Y59.471 E.36092
G1 X75.145 Y60.294 F30000
G1 F2100
G1 X75.226 Y60.416 E.01786
G1 X75.188 Y60.605 E.02351
G1 X74.979 Y60.864 E.04067
G1 X74.466 Y61.249 E.07829
G1 X73.871 Y61.487 E.07829
G1 X73.473 Y61.539 E.04901
G1 X73.21 Y61.606 E.03309
G1 X72.595 Y61.687 E.0757
G1 X71.958 Y61.611 E.07829
G1 X71.363 Y61.372 E.07829
G1 X70.809 Y60.947 E.08525
G1 X70.654 Y60.745 E.03106
G1 X70.609 Y60.606 E.01786
G1 X70.66 Y60.469 E.01786
G1 X70.822 Y60.391 E.02187
G1 X72.593 Y60.331 E.21638
G1 X72.745 Y60.312 E.01872
G1 X72.948 Y60.254 E.02576
G1 X73.056 Y60.251 E.01321
G1 X73.417 Y60.304 E.04451
G1 X75.006 Y60.25 E.19409
G1 X75.069 Y60.27 E.00809
G1 E-1.08 F1800
;WIPE_START
G1 F30000
G1 X75.226 Y60.416 E-.01287
G1 X75.188 Y60.605 E-.01155
G1 X74.979 Y60.864 E-.01999
G1 X74.466 Y61.249 E-.03848
G1 X73.892 Y61.479 E-.03711
;WIPE_END
G1 X74.94 Y56.442 Z.8
G1 Z.4
G1 E1.2 F1800
G1 F2100
G1 X73.275 Y56.498 E.20343
G1 X73.121 Y56.533 E.01922
G1 X72.962 Y56.636 E.02319
G1 X72.884 Y56.762 E.01808
G1 X72.82 Y56.663 E.01437
G1 X72.741 Y56.609 E.01171
G1 X72.655 Y56.565 E.01182
G1 X72.475 Y56.525 E.02241
G1 X69.414 Y56.628 E.37398
G1 X69.482 Y56.108 E.06408
G1 X69.802 Y55.336 E.10201
G1 X70.311 Y54.673 E.10201
G1 X70.974 Y54.164 E.10201
G1 X71.746 Y53.844 E.10201
G1 X72.574 Y53.735 E.10201
G1 X72.709 Y53.741 E.01654
G1 X73.287 Y53.664 E.07117
G1 X74.116 Y53.774 E.10201
G1 X74.888 Y54.093 E.10201
G1 X75.55 Y54.602 E.10201
G1 X76.059 Y55.265 E.10201
G1 X76.379 Y56.037 E.10201
G1 X76.426 Y56.392 E.04379
G1 X75.02 Y56.439 E.17169
G1 X74.995 Y55.706 F30000
G1 F2100
G1 X73.261 Y55.764 E.21192
G1 X72.814 Y55.848 E.05553
G1 X72.431 Y55.792 E.0472
G1 X70.789 Y55.847 E.20059
G1 X70.649 Y55.803 E.01786
G1 X70.568 Y55.682 E.01786
G1 X70.607 Y55.493 E.02351
G1 X70.817 Y55.219 E.0421
G1 X71.371 Y54.794 E.08525
G1 X71.97 Y54.555 E.07875
G1 X73.316 Y54.409 E.16533
G1 X73.951 Y54.5 E.07829
G1 X74.54 Y54.752 E.07829
G1 X75.004 Y55.108 E.07133
G1 X75.199 Y55.35 E.03803
G1 X75.245 Y55.489 E.01786
G1 X75.193 Y55.626 E.01786
G1 X75.071 Y55.685 E.01656
G1 E-1.08 F1800
;WIPE_START
G1 F30000
G1 X73.261 Y55.764 E-.10873
G1 X73.076 Y55.799 E-.01127
;WIPE_END
G1 X65.489 Y56.63 Z.8
G1 X63.785 Y56.817 Z.8
G1 Z.4
G1 E1.2 F1800
G1 F2100
G1 X60.634 Y56.923 E.38488
G1 X60.481 Y56.958 E.01922
G1 X60.321 Y57.061 E.02319
G1 X60.243 Y57.187 E.01808
G1 X60.179 Y57.088 E.01437
G1 X60.1 Y57.034 E.01171
G1 X60.014 Y56.99 E.01182
G1 X59.834 Y56.95 E.02241
G1 X56.681 Y57.056 E.38528
G1 X56.755 Y56.488 E.06989
G1 X57.075 Y55.717 E.10201
G1 X57.584 Y55.054 E.10201
G1 X58.247 Y54.545 E.10201
G1 X59.018 Y54.225 E.10201
G1 X59.847 Y54.116 E.10201
G1 X60.192 Y54.149 E.04239
G1 X60.646 Y54.089 E.0559
G1 X61.475 Y54.198 E.10201
G1 X62.247 Y54.518 E.10201
G1 X62.91 Y55.027 E.10201
G1 X63.418 Y55.69 E.10201
G1 X63.738 Y56.462 E.10201
G1 X63.774 Y56.738 E.03402
G1 X62.552 Y56.051 F30000
G1 F2100
G1 X62.391 Y56.129 E.02187
G1 X60.62 Y56.189 E.21638
G1 X60.173 Y56.272 E.05553
G1 X59.79 Y56.217 E.0472
G1 X58.025 Y56.276 E.21564
G1 X57.885 Y56.232 E.01786
G1 X57.804 Y56.111 E.01786
G1 X57.843 Y55.922 E.02351
G1 X58.13 Y55.56 E.05647
G1 X58.594 Y55.204 E.07133
G1 X59.183 Y54.952 E.07829
G1 X59.835 Y54.858 E.08042
G1 X60.301 Y54.875 E.05684
G1 X60.618 Y54.834 E.03904
G1 X61.254 Y54.91 E.07829
G1 X61.85 Y55.148 E.07829
G1 X62.363 Y55.533 E.07829
G1 X62.558 Y55.775 E.03803
G1 X62.604 Y55.914 E.01786
G1 X62.58 Y55.976 E.00809
G1 E-1.08 F1800
;WIPE_START
G1 F30000
G1 X62.391 Y56.129 E-.01461
G1 X60.636 Y56.188 E-.10539
;WIPE_END
G1 X62.713 Y59.929 Z.8
G1 Z.4
G1 E1.2 F1800
G1 F2100
G1 X63.772 Y59.893 E.1293
G1 X63.713 Y60.361 E.05757
G1 X63.393 Y61.132 E.10188
G1 X62.885 Y61.795 E.10201
G1 X62.222 Y62.304 E.10201
G1 X61.45 Y62.623 E.10201
G1 X60.914 Y62.694 E.066
G1 X60.754 Y62.747 E.02061
G1 X59.925 Y62.856 E.10201
G1 X59.097 Y62.747 E.10201
G1 X58.325 Y62.427 E.10201
G1 X57.662 Y61.919 E.10201
G1 X57.154 Y61.256 E.10201
G1 X56.834 Y60.484 E.10201
G1 X56.787 Y60.128 E.04379
G1 X59.938 Y60.022 E.38488
G1 X60.091 Y59.988 E.01922
G1 X60.251 Y59.884 E.02319
G1 X60.329 Y59.758 E.01808
G1 X60.393 Y59.857 E.01438
G1 X60.558 Y59.956 E.02348
G1 X60.737 Y59.995 E.02241
G1 X62.633 Y59.932 E.23162
G1 X62.396 Y60.685 F30000
G1 F2100
G1 X62.504 Y60.719 E.01383
G1 X62.586 Y60.841 E.01786
G1 X62.547 Y61.03 E.02351
G1 X62.338 Y61.289 E.04067
G1 X61.825 Y61.674 E.07829
G1 X61.23 Y61.912 E.07829
G1 X60.832 Y61.964 E.04901
G1 X60.569 Y62.031 E.03309
G1 X59.954 Y62.112 E.0757
G1 X59.317 Y62.035 E.07829
G1 X58.722 Y61.797 E.07829
G1 X58.168 Y61.372 E.08525
G1 X58.013 Y61.17 E.03106
G1 X57.968 Y61.031 E.01786
G1 X58.02 Y60.894 E.01786
G1 X58.181 Y60.816 E.02187
G1 X59.952 Y60.756 E.21638
G1 X60.104 Y60.737 E.01872
G1 X60.307 Y60.679 E.02576
G1 X60.415 Y60.676 E.01321
G1 X60.776 Y60.729 E.04451
G1 X62.318 Y60.677 E.18835
G1 E-1.08 F1800
;WIPE_START
G1 F30000
G1 X62.504 Y60.719 E-.01148
G1 X62.586 Y60.841 E-.00878
G1 X62.547 Y61.03 E-.01155
G1 X62.338 Y61.289 E-.01999
G1 X61.825 Y61.674 E-.03848
G1 X61.365 Y61.858 E-.02973
;WIPE_END
G1 X58.73 Y69.021 Z.8
G1 X16.591 Y183.574 Z.8
G1 Z.4
G1 E1.2 F1800
;TYPE:Outer wall
G1 F2100
G1 X16.305 Y183.279 E.05017
G3 X17.323 Y179.466 I1.842 J-1.551 E.56478
G1 X17.729 Y179.357 E.05133
G3 X16.656 Y183.618 I.418 J2.371 E1.17101
G1 E-1.08 F1800
;WIPE_START
G1 F30000
G1 X16.305 Y183.279 E-.02929
G1 X16.059 Y182.939 E-.0252
G1 X15.882 Y182.558 E-.02523
G1 X15.773 Y182.151 E-.02523
G1 X15.751 Y181.901 E-.01506
;WIPE_END
G1 X21.206 Y183.372 Z.8
G1 Z.4
G1 E1.2 F1800
;TYPE:Inner wall
G1 F2100
G1 X21.206 Y194.024 E1.30046
G1 X21.259 Y194.623 E.07346
G1 X21.421 Y195.239 E.0777
G1 X21.689 Y195.829 E.07912
G1 X22.054 Y196.364 E.07912
G1 X22.504 Y196.83 E.07912
G1 X22.632 Y196.923 E.01926
G1 X22.525 Y197.231 E.0397
G1 X19.997 Y197.146 E.30891
G1 X12.054 Y189.203 E1.37139
G1 X12.054 Y177.205 E1.46481
G1 X12.362 Y177.108 E.03943
G1 X12.49 Y177.29 E.02715
G1 X12.958 Y177.759 E.08085
G1 X13.5 Y178.139 E.08085
G1 X14.101 Y178.418 E.08085
G1 X14.74 Y178.59 E.08085
G1 X15.344 Y178.643 E.07393
G1 X16.555 Y178.643 E.14787
G1 X16.652 Y178.951 E.03943
G1 X16.124 Y179.32 E.07867
G2 X15.736 Y183.757 I2.065 J2.416 E.60243
G1 X16.127 Y184.148 E.0676
G1 X16.591 Y184.468 E.06871
G1 X17.071 Y184.692 E.06473
G2 X19.723 Y184.46 I1.065 J-3.092 E.33469
G1 X20.176 Y184.142 E.0676
G2 X20.898 Y183.275 I-2.207 J-2.57 E.13837
G1 X21.13 Y183.348 E.02967
G1 E-1.08 F1800
;WIPE_START
G1 F30000
G1 X21.144 Y185.348 E-.12
;WIPE_END
G1 X20.98 Y177.717 Z.8
G1 X18.606 Y67.379 Z.8
G1 Z.4
G1 E1.2 F1800
;TYPE:Outer wall
G1 F2100
G1 X18.942 Y67.144 E.05016
G3 X19.323 Y66.966 I1.205 J2.084 E.0514
G1 X19.729 Y66.857 E.05133
G3 X18.545 Y67.431 I.418 J2.371 E1.68411
G1 E-1.08 F1800
;WIPE_START
G1 F30000
G1 X18.942 Y67.144 E-.02943
G1 X19.323 Y66.966 E-.02523
G1 X19.729 Y66.857 E-.02523
G1 X20.132 Y66.822 E-.02426
G1 X20.396 Y66.843 E-.01585
;WIPE_END
G1 X24.72 Y60.554 Z.8
G1 X25.225 Y59.819 Z.8
G1 Z.4
G1 E1.2 F1800
;TYPE:Inner wall
G1 F2100
G1 X24.639 Y60.339 E.09556
G2 X23.807 Y61.249 I5.776 J6.115 E.15068
G2 X23.206 Y63.103 I2.674 J1.892 E.24171
G1 X23.206 Y67.593 E.54815
G1 X22.898 Y67.69 E.03943
G1 X22.561 Y67.208 E.07179
G2 X21.225 Y66.273 I-2.639 J2.348 E.20083
G1 X20.69 Y66.13 E.0676
G1 X20.129 Y66.085 E.06871
G1 X19.601 Y66.131 E.06473
G2 X17.421 Y70.807 I.572 J3.113 E.73631
G1 X17.582 Y71.037 E.0343
G1 X17.296 Y71.298 E.04724
G1 X16.809 Y70.887 E.07791
G1 X16.327 Y70.602 E.06826
G2 X14.715 Y70.283 I-1.509 J3.39 E.20235
G2 X12.702 Y71.117 I.185 J3.294 E.27113
G1 X12.054 Y71.802 E.11511
G1 X12.054 Y67.846 E.48301
G1 X20.081 Y59.819 E1.38594
G1 X25.145 Y59.819 E.61825
G1 E-1.08 F1800
;WIPE_START
G1 F30000
G1 X24.639 Y60.339 E-.04349
G1 X24.109 Y60.887 E-.04575
G1 X23.807 Y61.249 E-.02828
G1 X23.786 Y61.284 E-.00248
;WIPE_END
G1 X31.403 Y61.769 Z.8
G1 X239.517 Y75.003 Z.8
G1 Z.4
G1 E1.2 F1800
G1 F2100
G1 X239.607 Y74.81 E.02604
G2 X237.725 Y70.773 I-2.997 J-1.06 E.60243
G1 X237.19 Y70.63 E.0676
G1 X236.629 Y70.585 E.06871
G1 X236.101 Y70.631 E.06473
G2 X234.236 Y71.708 I.547 J3.101 E.26841
G1 X234.102 Y71.899 E.02844
G1 X233.794 Y71.802 E.03943
G1 X233.794 Y64.103 E.93996
G2 X232.903 Y61.899 I-3.383 J.086 E.29663
G1 X231.361 Y60.305 E.27072
G1 X230.776 Y59.786 E.09556
G1 X236.919 Y59.786 E.75004
G1 X244.946 Y67.813 E1.38594
G1 X244.946 Y75.802 E.97548
G1 X244.298 Y75.117 E.11511
G2 X241.187 Y74.407 I-2.201 J2.474 E.40655
G2 X239.798 Y75.218 I1.106 J3.486 E.19792
G1 X239.581 Y75.052 E.03347
G1 E-1.08 F1800
;WIPE_START
G1 F30000
G1 X239.607 Y74.81 E-.0146
G1 X239.749 Y74.279 E-.03294
G1 X239.797 Y73.733 E-.03294
G1 X239.749 Y73.186 E-.03294
G1 X239.721 Y73.08 E-.00659
;WIPE_END
G1 X238.917 Y72.917 Z.8
G1 Z.4
G1 E1.2 F1800
;TYPE:Outer wall
G1 F2100
G1 X239.019 Y73.315 E.05012
G3 X235.823 Y71.466 I-2.372 J.414 E1.33325
G1 X236.229 Y71.357 E.05133
G3 X238.886 Y72.844 I.418 J2.371 E.40241
G1 E-1.08 F1800
;WIPE_START
G1 F30000
G1 X239.019 Y73.315 E-.02935
G1 X239.06 Y73.733 E-.0252
G1 X239.024 Y74.151 E-.02523
G1 X238.915 Y74.558 E-.02523
G1 X238.809 Y74.784 E-.01499
;WIPE_END
G1 X239.252 Y82.404 Z.8
G1 X244.638 Y175.108 Z.8
G1 Z.4
G1 E1.2 F1800
;TYPE:Inner wall
G1 F2100
G1 X244.946 Y175.205 E.03943
G1 X244.946 Y189.237 E1.71307
G1 X236.919 Y197.263 E1.38594
G1 X233.464 Y197.263 E.42184
G1 X233.365 Y196.96 E.03901
G1 X233.496 Y196.864 E.01984
